pix_core/f/document.svg

<svg fill="none" preserveAspectRatio="xMinYMid meet" viewBox="0 0 24 24" xmlns="http://www.w3.org/2000/svg"><g clip-rule="evenodd" fill="#fff" fill-rule="evenodd"><path d="m4.5 5c0-1.38071 1.11929-2.5 2.5-2.5h6.1716c.663 0 1.2989.26339 1.7677.73223l3.8285 3.82843c.4688.46884.7322 1.10473.7322 1.76777v10.17157c0 1.3807-1.1193 2.5-2.5 2.5h-10c-1.38071 0-2.5-1.1193-2.5-2.5 0-.2761.22386-.5.5-.5s.5.2239.5.5c0 .8284.67157 1.5 1.5 1.5h10c.8284 0 1.5-.6716 1.5-1.5v-10c0-.27614-.2239-.5-.5-.5h-3c-.8284 0-1.5-.67157-1.5-1.5v-3c0-.27614-.2239-.5-.5-.5h-6c-.82843 0-1.5.67157-1.5 1.5v6c0 .2761-.22386.5-.5.5s-.5-.2239-.5-.5zm10 2v-2.79289l3.2929 3.29289h-2.7929c-.2761 0-.5-.22386-.5-.5z"/><path d="m13.2964 16.1906c-.0921-.0496-.1689-.1223-.2303-.2211-.0611-.1032-.1083-.2322-.1398-.3894-.0316-.16-.0479-.3476-.0479-.5636v-.3018c0-.2215.0172-.4115.0506-.5709.0352-.161.0868-.289.1524-.3873.0654-.0982.1445-.1688.2369-.215.093-.0465.205-.0715.339-.0715.1861 0 .3242.03.4217.082l.0018.0009c.0995.0506.173.1259.2221.2275.0513.1041.0833.2357.0925.398.003.053.0468.0944.0998.0944h.8789c.0282 0 .055-.0119.074-.0327.0189-.0209.0282-.0487.0256-.0768-.0286-.3024-.1148-.5748-.2599-.8154-.1447-.2431-.349-.4333-.6104-.5702-.262-.1384-.5789-.2049-.9461-.2049-.2797 0-.5359.05-.7669.152-.2301.1016-.4289.2475-.5947.4361-.1641.189-.2894.4173-.377.6821-.0858.2635-.128.5564-.128.8776v.2959c0 .321.0411.6136.1248.877.0837.2631.2063.4906.3685.6798.164.1889.3622.3347.5924.4364.2312.0999.4901.1488.7751.1488.3612 0 .6762-.0646.9413-.1981.2652-.1327.4739-.3186.6229-.5578.1503-.2381.2339-.5094.2524-.8116.0017-.0276-.0081-.0546-.027-.0747-.0189-.02-.0453-.0314-.0728-.0314h-.876c-.0526 0-.0962.0407-.0998.0932-.011.1614-.0464.2896-.1017.3886l-.0007.0012c-.0525.0967-.1279.1691-.2287.2186-.1012.0498-.2361.0777-.4099.0777-.1439 0-.2611-.026-.3551-.0736zm0 0 .0009.0005-.0472.0881.0453-.0891zm-.2303-.2211-.0855.0519.086-.051zm2.308-1.7977c-.0032-.0334-.0071-.0664-.0117-.099h.0117zm-.1004.0011h.0994l-.0985.0093z"/><path d="m8.49264 12.7274c.23637-.1016.4951-.1517.77484-.1517.28151 0 .54034.05.77502.1517.2361.1015.4395.2489.6094.4415.1718.1926.303.4241.3947.6928.0941.2683.1402.5707.1402.9058v.2021c0 .3332-.0451.6354-.1372.9053-.0916.2688-.2218.5004-.3917.6931-.1699.1907-.3737.3374-.6097.4388-.23463.1017-.49341.1517-.77486.1517-.27974 0-.53847-.0501-.77484-.1517-.23391-.1014-.43735-.2477-.60898-.438-.17187-.1925-.30446-.4245-.39811-.6932-.09203-.27-.13741-.5728-.13741-.906v-.2021c0-.335.04511-.6372.13719-.9053.09161-.2688.22182-.5004.39171-.6931.17164-.1923.37558-.3402.60974-.4417zm.77484.7485c-.13453 0-.25001.0273-.34899.0793-.09683.0501-.18192.1263-.25366.2311-.06999.1051-.12545.2379-.16434.4009-.03877.1625-.05879.3536-.05879.5744v.208c0 .2187.01999.41.05882.5746.03882.1626.09517.2963.16711.4035.07168.1048.15731.182.25671.2342.09899.052.21447.0793.349.0793s.25001-.0273.34899-.0793c.09914-.0521.18356-.129.25315-.2333.07034-.1073.12592-.2414.16482-.4044.0388-.1646.0588-.3559.0588-.5746v-.208c0-.2208-.02-.4119-.0588-.5744-.0388-.1628-.09517-.2954-.16691-.4004-.07155-.1047-.15689-.1807-.25573-.231l-.00119-.0006c-.09899-.052-.21446-.0793-.34899-.0793z"/><path d="m4.50887 17.1525h.1994c.30203 0 .58119-.0503.835-.1522.25456-.1035.47449-.2502.65828-.4402.18566-.1919.32772-.4206.4267-.6844.10135-.2649.15114-.5555.15114-.8704v-.2019c0-.3166-.04973-.6073-.15119-.8705-.09897-.2637-.24101-.4924-.42665-.6843-.18547-.1917-.40528-.3385-.65818-.4401-.25193-.1041-.52789-.1552-.82632-.1552h-1.31646c-.06618 0-.11983.0537-.11983.1198v4.2595c0 .0662.05365.1199.11983.1199h.32192v.0025h.78636zm-1.22811-4.3794.00176.0117v.0037zm1.1173 3.4551v-2.6477h.31899c.15588 0 .28887.0268.40155.0773l.00137.0006c.11229.0486.20667.1211.28429.219.07787.0982.13868.2222.18007.3752l.00036.0012c.04314.1528.0657.3335.0657.5438v.2077c0 .2738-.03984.5013-.11437.6841-.07219.1814-.1768.3136-.31161.4036-.13451.0879-.30438.1352-.51614.1352z"/></g></svg>

<svg viewBox="0 0 24 24" fill="none" xmlns="http://www.w3.org/2000/svg" preserveAspectRatio="xMinYMid meet">
<path fill-rule="evenodd" clip-rule="evenodd" d="M4.5 5C4.5 3.61929 5.61929 2.5 7 2.5H13.1716C13.8346 2.5 14.4705 2.76339 14.9393 3.23223L18.7678 7.06066C19.2366 7.5295 19.5 8.16539 19.5 8.82843V19C19.5 20.3807 18.3807 21.5 17 21.5H7C5.61929 21.5 4.5 20.3807 4.5 19C4.5 18.7239 4.72386 18.5 5 18.5C5.27614 18.5 5.5 18.7239 5.5 19C5.5 19.8284 6.17157 20.5 7 20.5H17C17.8284 20.5 18.5 19.8284 18.5 19V9C18.5 8.72386 18.2761 8.5 18 8.5H15C14.1716 8.5 13.5 7.82843 13.5 7V4C13.5 3.72386 13.2761 3.5 13 3.5H7C6.17157 3.5 5.5 4.17157 5.5 5V11C5.5 11.2761 5.27614 11.5 5 11.5C4.72386 11.5 4.5 11.2761 4.5 11V5ZM14.5 7V4.20711L17.7929 7.5H15C14.7239 7.5 14.5 7.27614 14.5 7Z" fill="#fff"/>
<path fill-rule="evenodd" clip-rule="evenodd" d="M13.2964 16.1906C13.2043 16.141 13.1275 16.0683 13.0661 15.9695C13.005 15.8663 12.9578 15.7373 12.9263 15.5801C12.8947 15.4201 12.8784 15.2325 12.8784 15.0165V14.7147C12.8784 14.4932 12.8956 14.3032 12.929 14.1438C12.9642 13.9828 13.0158 13.8548 13.0814 13.7565C13.1468 13.6583 13.2259 13.5877 13.3183 13.5415C13.4113 13.495 13.5233 13.47 13.6573 13.47C13.8434 13.47 13.9815 13.5 14.079 13.552L14.0808 13.5529C14.1803 13.6035 14.2538 13.6788 14.3029 13.7804C14.3542 13.8845 14.3862 14.0161 14.3954 14.1784C14.3984 14.2314 14.4422 14.2728 14.4952 14.2728H15.3741C15.4023 14.2728 15.4291 14.2609 15.4481 14.2401C15.467 14.2192 15.4763 14.1914 15.4737 14.1633C15.4451 13.8609 15.3589 13.5885 15.2138 13.3479C15.0691 13.1048 14.8648 12.9146 14.6034 12.7777C14.3414 12.6393 14.0245 12.5728 13.6573 12.5728C13.3776 12.5728 13.1214 12.6228 12.8904 12.7248C12.6603 12.8264 12.4615 12.9723 12.2957 13.1609C12.1316 13.3499 12.0063 13.5782 11.9187 13.843C11.8329 14.1065 11.7907 14.3994 11.7907 14.7206V15.0165C11.7907 15.3375 11.8318 15.6301 11.9155 15.8935C11.9992 16.1566 12.1218 16.3841 12.284 16.5733C12.448 16.7622 12.6462 16.908 12.8764 17.0097C13.1076 17.1096 13.3665 17.1585 13.6515 17.1585C14.0127 17.1585 14.3277 17.0939 14.5928 16.9604C14.858 16.8277 15.0667 16.6418 15.2157 16.4026C15.366 16.1645 15.4496 15.8932 15.4681 15.591C15.4698 15.5634 15.46 15.5364 15.4411 15.5163C15.4222 15.4963 15.3958 15.4849 15.3683 15.4849H14.4923C14.4397 15.4849 14.3961 15.5256 14.3925 15.5781C14.3815 15.7395 14.3461 15.8677 14.2908 15.9667L14.2901 15.9679C14.2376 16.0646 14.1622 16.137 14.0614 16.1865C13.9602 16.2363 13.8253 16.2642 13.6515 16.2642C13.5076 16.2642 13.3904 16.2382 13.2964 16.1906ZM13.2964 16.1906L13.2973 16.1911L13.2501 16.2792L13.2954 16.1901L13.2964 16.1906ZM13.0661 15.9695L12.9806 16.0214L13.0666 15.9704L13.0661 15.9695ZM15.3741 14.1718C15.3709 14.1384 15.367 14.1054 15.3624 14.0728H15.3741V14.1718ZM15.2737 14.1729H15.3731L15.2746 14.1822L15.2737 14.1729Z" fill="#fff"/>
<path fill-rule="evenodd" clip-rule="evenodd" d="M8.49264 12.7274C8.72901 12.6258 8.98774 12.5757 9.26748 12.5757C9.54899 12.5757 9.80782 12.6257 10.0425 12.7274C10.2786 12.8289 10.482 12.9763 10.6519 13.1689C10.8237 13.3615 10.9549 13.593 11.0466 13.8617C11.1407 14.13 11.1868 14.4324 11.1868 14.7675V14.9696C11.1868 15.3028 11.1417 15.605 11.0496 15.8749C10.958 16.1437 10.8278 16.3753 10.6579 16.568C10.488 16.7587 10.2842 16.9054 10.0482 17.0068C9.81357 17.1085 9.55479 17.1585 9.27334 17.1585C8.9936 17.1585 8.73487 17.1084 8.4985 17.0068C8.26459 16.9054 8.06115 16.7591 7.88952 16.5688C7.71765 16.3763 7.58506 16.1443 7.49141 15.8756C7.39938 15.6056 7.354 15.3028 7.354 14.9696V14.7675C7.354 14.4325 7.39911 14.1303 7.49119 13.8622C7.5828 13.5934 7.71301 13.3618 7.8829 13.1691C8.05454 12.9768 8.25848 12.8289 8.49264 12.7274ZM9.26748 13.4759C9.13295 13.4759 9.01747 13.5032 8.91849 13.5552C8.82166 13.6053 8.73657 13.6815 8.66483 13.7863C8.59484 13.8914 8.53938 14.0242 8.50049 14.1872C8.46172 14.3497 8.4417 14.5408 8.4417 14.7616V14.9696C8.4417 15.1883 8.46169 15.3796 8.50052 15.5442C8.53934 15.7068 8.59569 15.8405 8.66763 15.9477C8.73931 16.0525 8.82494 16.1297 8.92434 16.1819C9.02333 16.2339 9.13881 16.2612 9.27334 16.2612C9.40787 16.2612 9.52335 16.2339 9.62233 16.1819C9.72147 16.1298 9.80589 16.0529 9.87548 15.9486C9.94582 15.8413 10.0014 15.7072 10.0403 15.5442C10.0791 15.3796 10.0991 15.1883 10.0991 14.9696V14.7616C10.0991 14.5408 10.0791 14.3497 10.0403 14.1872C10.0015 14.0244 9.94513 13.8918 9.87339 13.7868C9.80184 13.6821 9.7165 13.6061 9.61766 13.5558L9.61647 13.5552C9.51748 13.5032 9.40201 13.4759 9.26748 13.4759Z" fill="#fff"/>
<path fill-rule="evenodd" clip-rule="evenodd" d="M4.50887 17.1525H4.70827C5.0103 17.1525 5.28946 17.1022 5.54327 17.0003C5.79783 16.8968 6.01776 16.7501 6.20155 16.5601C6.38721 16.3682 6.52927 16.1395 6.62825 15.8757C6.7296 15.6108 6.77939 15.3202 6.77939 15.0053V14.8034C6.77939 14.4868 6.72966 14.1961 6.6282 13.9329C6.52923 13.6692 6.38719 13.4405 6.20155 13.2486C6.01608 13.0569 5.79627 12.9101 5.54337 12.8085C5.29144 12.7044 5.01548 12.6533 4.71705 12.6533H3.40059C3.33441 12.6533 3.28076 12.707 3.28076 12.7731V17.0326C3.28076 17.0988 3.33441 17.1525 3.40059 17.1525H3.72251V17.155H4.50887V17.1525ZM3.28076 12.7731L3.28252 12.7848V12.7885L3.28076 12.7731ZM4.39806 16.2282V13.5805H4.71705C4.87293 13.5805 5.00592 13.6073 5.1186 13.6578L5.11997 13.6584C5.23226 13.707 5.32664 13.7795 5.40426 13.8774C5.48213 13.9756 5.54294 14.0996 5.58433 14.2526L5.58469 14.2538C5.62783 14.4066 5.65039 14.5873 5.65039 14.7976V15.0053C5.65039 15.2791 5.61055 15.5066 5.53602 15.6894C5.46383 15.8708 5.35922 16.003 5.22441 16.093C5.0899 16.1809 4.92003 16.2282 4.70827 16.2282H4.39806Z" fill="#fff"/>
</svg>
